images/editable/441.svg

<svg width="763" height="600" xmlns="http://www.w3.org/2000/svg">
 <!-- Created with Method Draw - http://github.com/duopixel/Method-Draw/ -->

 <g>
  <title>background</title>
  <rect fill="#FFFFFF" opacity="0" id="canvas_background" height="602" width="765" y="-1" x="-1"/>
  <g display="none" overflow="visible" y="0" x="0" height="100%" width="100%" id="canvasGrid">
   <rect fill="url(#gridpattern)" stroke-width="0" y="0" x="0" height="100%" width="100%"/>
  </g>
 </g>
 <g>
  <title>Layer 1</title>
  <metadata transform="matrix(1.4132720287682474,0,0,1.4132720287682474,0,0) " id="svg_17">image/svg+xml</metadata>

  <g stroke="null" id="svg_19">
   <path fill="#1966ba" fill-rule="nonzero" id="svg_16" d="m93.11007,515.6681l569.72102,0l0,-426.63035l-569.72102,0l0,426.63035zm0,0"/>
   <path fill="#ffffff" fill-rule="nonzero" id="svg_15" d="m102.23276,486.01614c0,12.34647 12.31014,22.23899 27.33668,22.23899l496.81795,0c15.18358,0 27.33668,-9.89252 27.33668,-22.23899l0,-367.32643c0,-12.21867 -12.1531,-22.23899 -27.33668,-22.23899l-496.81795,0c-15.02654,0 -27.33668,10.02032 -27.33668,22.23899l0,367.32643"/>
   <path fill="#1966ba" fill-rule="nonzero" id="svg_14" d="m109.15719,486.01614c0,9.18957 9.10702,16.74314 20.41225,16.74314l496.81795,0c11.30524,0 20.58497,-7.55357 20.58497,-16.74314l0,-367.32643c0,-9.20233 -9.27974,-16.61534 -20.58497,-16.61534l-496.81795,0c-11.30524,0 -20.41225,7.41301 -20.41225,16.61534l0,367.32643"/>
   <path fill="#ffffff" fill-rule="nonzero" id="svg_13" d="m179.6736,293.0739l396.60964,0l0,-169.71912l-396.60964,0l0,169.71912zm0,0"/>
   <path fill="#ffffff" fill-rule="nonzero" id="svg_12" d="m430.19448,436.71978c2.18254,-1.78936 0.15701,-4.94626 -2.8734,-4.39667l-38.12379,6.72279l0,-24.5779l-22.43775,0l0,24.7185l-37.79401,-6.72282c-3.20317,-0.56235 -5.22867,2.60734 -2.85772,4.5245l51.95697,39.82563l52.1297,-40.09403"/>
   <path fill="#007d45" fill-rule="nonzero" id="svg_11" d="m184.22709,289.36742l387.50266,0l0,-162.30614l-387.50266,0l0,162.30614zm0,0"/>
  </g>
  <text xml:space="default" dominant-baseline="middle" text-anchor="middle" font-family="sans-serif" font-size="40" id="svg_21" y="181.17647" x="381.5" stroke-width="0" stroke="#000" fill="#ffffff">param(text1)</text>
  <text xml:space="default" dominant-baseline="middle" text-anchor="middle" font-family="sans-serif" font-size="40" id="svg_22" y="255.29411" x="381.5" stroke-width="0" stroke="#000" fill="#ffffff">param(text2)</text>
  <text xml:space="default" dominant-baseline="middle" text-anchor="middle" font-family="sans-serif" font-size="40" id="svg_23" y="358.82353" x="381.5" stroke-width="0" stroke="#000" fill="#ffffff">param(text3)</text>
 </g>
</svg>

<?xml version="1.0" encoding="UTF-8" standalone="no"?>
<svg
   xmlns:dc="http://purl.org/dc/elements/1.1/"
   xmlns:cc="http://creativecommons.org/ns#"
   xmlns:rdf="http://www.w3.org/1999/02/22-rdf-syntax-ns#"
   xmlns:svg="http://www.w3.org/2000/svg"
   xmlns="http://www.w3.org/2000/svg"
   xmlns:sodipodi="http://sodipodi.sourceforge.net/DTD/sodipodi-0.dtd"
   xmlns:inkscape="http://www.inkscape.org/namespaces/inkscape"
   width="143"
   height="131"
   version="1.1"
   id="svg4175"
   sodipodi:docname="441.svg"
   inkscape:version="1.0.2 (e86c870879, 2021-01-15, custom)">
  <metadata
     id="metadata4181">
    <rdf:RDF>
      <cc:Work
         rdf:about="">
        <dc:format>image/svg+xml</dc:format>
        <dc:type
           rdf:resource="http://purl.org/dc/dcmitype/StillImage" />
        <dc:title></dc:title>
      </cc:Work>
    </rdf:RDF>
  </metadata>
  <defs
     id="defs4179" />
  <sodipodi:namedview
     pagecolor="#ffffff"
     bordercolor="#666666"
     borderopacity="1"
     objecttolerance="10"
     gridtolerance="10"
     guidetolerance="10"
     inkscape:pageopacity="0"
     inkscape:pageshadow="2"
     inkscape:window-width="1920"
     inkscape:window-height="1017"
     id="namedview4177"
     showgrid="false"
     inkscape:zoom="2.0034692"
     inkscape:cx="193.96796"
     inkscape:cy="136.03033"
     inkscape:window-x="3832"
     inkscape:window-y="-8"
     inkscape:window-maximized="1"
     inkscape:current-layer="svg4175" />
  <!-- Created with Method Draw - http://github.com/duopixel/Method-Draw/ -->
  <g
     id="g4158">
    <title
       id="title4152">background</title>
    <rect
       fill="#ffffff"
       opacity="0"
       id="canvas_background"
       height="602"
       width="765"
       y="-1"
       x="-1" />
    <g
       display="none"
       overflow="visible"
       y="0"
       x="0"
       height="100%"
       width="100%"
       id="canvasGrid">
      <rect
         fill="url(#gridpattern)"
         stroke-width="0"
         y="0"
         x="0"
         height="100%"
         width="100%"
         id="rect4155" />
    </g>
  </g>
  <g
     id="g4173"
     transform="matrix(0.24846199,0,0,0.24846199,-22.137776,-8.647605)">
    <title
       id="title4160">Layer 1</title>
    <metadata
       transform="matrix(1.4132720287682474,0,0,1.4132720287682474,0,0) "
       id="svg_17">image/svg+xml</metadata>
    <g
       stroke="null"
       id="svg_19">
      <path
         fill="#1966ba"
         fill-rule="nonzero"
         id="svg_16"
         d="M 93.11007,515.6681 H 662.83109 V 89.03775 H 93.11007 Z m 0,0" />
      <path
         fill="#ffffff"
         fill-rule="nonzero"
         id="svg_15"
         d="m 102.23276,486.01614 c 0,12.34647 12.31014,22.23899 27.33668,22.23899 h 496.81795 c 15.18358,0 27.33668,-9.89252 27.33668,-22.23899 V 118.68971 c 0,-12.21867 -12.1531,-22.23899 -27.33668,-22.23899 H 129.56944 c -15.02654,0 -27.33668,10.02032 -27.33668,22.23899 v 367.32643" />
      <path
         fill="#1966ba"
         fill-rule="nonzero"
         id="svg_14"
         d="m 109.15719,486.01614 c 0,9.18957 9.10702,16.74314 20.41225,16.74314 h 496.81795 c 11.30524,0 20.58497,-7.55357 20.58497,-16.74314 V 118.68971 c 0,-9.20233 -9.27974,-16.61534 -20.58497,-16.61534 H 129.56944 c -11.30524,0 -20.41225,7.41301 -20.41225,16.61534 v 367.32643" />
      <path
         fill="#ffffff"
         fill-rule="nonzero"
         id="svg_13"
         d="M 179.6736,293.0739 H 576.28324 V 123.35478 H 179.6736 Z m 0,0" />
      <path
         fill="#ffffff"
         fill-rule="nonzero"
         id="svg_12"
         d="m 430.19448,436.71978 c 2.18254,-1.78936 0.15701,-4.94626 -2.8734,-4.39667 l -38.12379,6.72279 V 414.468 h -22.43775 v 24.7185 l -37.79401,-6.72282 c -3.20317,-0.56235 -5.22867,2.60734 -2.85772,4.5245 l 51.95697,39.82563 52.1297,-40.09403" />
      <path
         fill="#007d45"
         fill-rule="nonzero"
         id="svg_11"
         d="M 184.22709,289.36742 H 571.72975 V 127.06128 H 184.22709 Z m 0,0" />
    </g>
    <text
       xml:space="default"
       dominant-baseline="middle"
       text-anchor="middle"
       font-family="sans-serif"
       font-size="40px"
       id="svg_21"
       y="181.17647"
       x="381.5"
       stroke-width="0"
       stroke="#000000"
       fill="#ffffff">param(text1)</text>
    <text
       xml:space="default"
       dominant-baseline="middle"
       text-anchor="middle"
       font-family="sans-serif"
       font-size="40px"
       id="svg_22"
       y="255.29411"
       x="381.5"
       stroke-width="0"
       stroke="#000000"
       fill="#ffffff">param(text2)</text>
    <text
       xml:space="default"
       dominant-baseline="middle"
       text-anchor="middle"
       font-family="sans-serif"
       font-size="40px"
       id="svg_23"
       y="358.82352"
       x="381.5"
       stroke-width="0"
       stroke="#000000"
       fill="#ffffff">param(text3)</text>
  </g>
</svg>
